packages/core/src/svgs/tokens/branded/BSV.svg

<svg width="24" height="24" viewBox="0 0 24 24" fill="none" xmlns="http://www.w3.org/2000/svg">
<path d="M7.00001 2V4.50001H4.5V7H5.75001C5.91577 7 6.07474 7.06586 6.19194 7.18307C6.30915 7.30027 6.37501 7.45925 6.37501 7.62501V16.3751C6.37501 16.5407 6.30915 16.6997 6.19194 16.8169C6.07474 16.9342 5.91577 17 5.75001 17H5.125L4.5 19.5H7.00001V22H9.5V19.5H11.375V22H13.875V19.5H15.1249V19.4906C17.5681 19.3406 19.4999 17.4431 19.4999 15.125C19.4999 13.36 18.3799 11.8388 16.7669 11.1475C17.6725 10.4601 18.25 9.41691 18.25 8.25001C18.25 5.95251 15.75 4.50001 13.875 4.50001V2H11.375V4.50001H9.5V2H7.00001ZM9.5 17V12.625H13.5625C14.1426 12.625 14.6991 12.8555 15.1093 13.2657C15.5196 13.676 15.75 14.2323 15.75 14.8125C15.75 15.3927 15.5196 15.9491 15.1093 16.3593C14.6991 16.7695 14.1426 17 13.5625 17H9.5ZM9.5 7H12.6251C13.1224 7 13.5992 7.19755 13.9508 7.54918C14.3024 7.90081 14.5 8.37773 14.5 8.87501C14.5 9.37229 14.3024 9.84916 13.9508 10.2008C13.5992 10.5525 13.1224 10.75 12.6251 10.75H9.5V7Z" fill="#EAB300"/>
</svg>

<svg xmlns="http://www.w3.org/2000/svg" width="24" height="24" fill="none" viewBox="0 0 24 24">
    <path fill="#EAB300" d="M7 2v2.5H4.5V7h1.25a.625.625 0 0 1 .625.625v8.75A.625.625 0 0 1 5.75 17h-.625L4.5 19.5H7V22h2.5v-2.5h1.875V22h2.5v-2.5h1.25v-.01c2.443-.15 4.375-2.047 4.375-4.365 0-1.765-1.12-3.286-2.733-3.977.906-.688 1.483-1.731 1.483-2.898 0-2.297-2.5-3.75-4.375-3.75V2h-2.5v2.5H9.5V2zm2.5 15v-4.375h4.063a2.188 2.188 0 0 1 0 4.375zm0-10h3.125a1.875 1.875 0 1 1 0 3.75H9.5z"/>
</svg>
